img/svg/hands.svg

<svg width="78" height="78" viewBox="0 0 78 78" fill="none" xmlns="http://www.w3.org/2000/svg">
<path d="M53.168 56.3672C53.168 57.2086 52.486 57.8906 51.6445 57.8906C50.8031 57.8906 50.1211 57.2086 50.1211 56.3672C50.1211 55.5257 50.8031 54.8438 51.6445 54.8438C52.486 54.8438 53.168 55.5257 53.168 56.3672Z" fill="white"/>
<path d="M27.8789 56.3672C27.8789 57.2086 27.1969 57.8906 26.3555 57.8906C25.514 57.8906 24.832 57.2086 24.832 56.3672C24.832 55.5257 25.514 54.8438 26.3555 54.8438C27.1969 54.8438 27.8789 55.5257 27.8789 56.3672Z" fill="white"/>
<path d="M26.8125 36.5625H51.1875C52.0284 36.5625 52.7109 35.8805 52.7109 35.0391V31.9922C52.7109 24.4452 46.6047 18.2812 39 18.2812C31.4393 18.2812 25.2891 24.4321 25.2891 31.9922V35.0391C25.2891 35.8805 25.971 36.5625 26.8125 36.5625ZM28.3359 31.9922C28.3359 26.1121 33.1199 21.3281 39 21.3281C44.8688 21.3281 49.6641 26.0764 49.6641 31.9922V33.5156H28.3359V31.9922Z" fill="white"/>
<path d="M48.1406 9.14062C48.1406 4.10019 44.0398 0 39 0C33.9596 0 29.8594 4.10019 29.8594 9.14062C29.8594 14.1811 33.9596 18.2812 39 18.2812C44.0398 18.2812 48.1406 14.1811 48.1406 9.14062ZM39 15.2344C35.6395 15.2344 32.9062 12.5005 32.9062 9.14062C32.9062 5.78073 35.6395 3.04688 39 3.04688C42.3599 3.04688 45.0938 5.78073 45.0938 9.14062C45.0938 12.5005 42.3599 15.2344 39 15.2344Z" fill="white"/>
<path d="M1.78171 46.8701L15.3451 62.5984C15.5682 62.8692 15.6914 63.2119 15.6914 63.5636V76.4766C15.6914 77.318 16.3734 78 17.2148 78H35.9531C36.794 78 37.4766 77.318 37.4766 76.4766V55.8447C37.4766 53.8101 36.6839 51.8969 35.245 50.4579C35.2372 50.4496 35.2295 50.4424 35.2212 50.4347L24.3738 40.0438C21.1419 36.822 16.3674 36.2852 12.6445 38.1681V25.8984C12.6445 19.9297 7.33452 15.2344 1.52344 15.2344C0.681976 15.2344 0 15.9164 0 16.7578V41.9737C0 43.7518 0.626633 45.4841 1.76505 46.8505C1.7704 46.857 1.77576 46.8636 1.78171 46.8701ZM3.04688 18.4312C6.62933 19.1352 9.59766 22.2089 9.59766 25.8984V41.1322V41.1364C9.59885 41.5393 9.76607 41.9326 10.044 42.2099L20.9711 53.1376C21.5662 53.7327 22.5308 53.7327 23.1259 53.1376C23.721 52.5425 23.721 51.5779 23.1259 50.9828L13.3932 41.2506C16.1377 39.4951 19.835 39.8135 22.2315 42.2099C22.2392 42.2177 33.1008 52.6229 33.1008 52.6229C33.9578 53.4852 34.4297 54.6289 34.4297 55.8447V74.9531H18.7383V63.5636C18.7383 62.4955 18.361 61.4558 17.6766 60.637C17.6719 60.631 17.6665 60.6251 17.6618 60.6191L4.0984 44.8914C3.42 44.0726 3.04688 43.0371 3.04688 41.9737V18.4312Z" fill="white"/>
<path d="M76.4766 15.2344C70.4483 15.2344 65.3555 20.1177 65.3555 25.8984V38.1681C63.9558 37.4599 62.399 37.0856 60.7852 37.0856C58.0816 37.0856 55.54 38.1359 53.6262 40.0438C53.6262 40.0438 42.7628 50.4496 42.755 50.4579C41.3155 51.8969 40.5234 53.8101 40.5234 55.8447V76.4766C40.5234 77.318 41.2054 78 42.0469 78H60.7852C61.626 78 62.3086 77.318 62.3086 76.4766V63.5636C62.3086 63.2119 62.4312 62.8692 62.6543 62.5984C62.6543 62.5984 76.2296 46.857 76.235 46.8505C77.3734 45.4841 78 43.7518 78 41.9737V16.7578C78 15.9164 77.3174 15.2344 76.4766 15.2344ZM74.9531 41.9737C74.9531 43.0371 74.5794 44.0726 73.901 44.8914C73.901 44.8914 60.3275 60.631 60.3228 60.637C59.6384 61.4558 59.2617 62.4955 59.2617 63.5636V74.9531H43.5703V55.8447C43.5703 54.6289 44.0422 53.4852 44.8986 52.6229C44.8986 52.6229 55.7608 42.2177 55.7685 42.2099C58.165 39.8141 61.8623 39.4951 64.6068 41.2506L54.8741 50.9828C54.279 51.5779 54.279 52.5425 54.8741 53.1376C55.4692 53.7327 56.4332 53.7327 57.0283 53.1376L67.956 42.2099C68.2321 41.9344 68.4012 41.544 68.4023 41.1364C68.4023 41.1352 68.4023 41.1334 68.4023 41.1322V25.8984C68.4023 22.3291 71.3225 19.1447 74.9531 18.4306V41.9737Z" fill="white"/>
</svg>

<svg width="78" height="78" viewBox="0 0 78 78" fill="none" xmlns="http://www.w3.org/2000/svg"><path d="M53.168 56.367a1.523 1.523 0 1 1-3.047 0 1.523 1.523 0 0 1 3.047 0zm-25.289 0a1.523 1.523 0 1 1-3.047 0 1.523 1.523 0 0 1 3.047 0zm-1.066-19.804h24.375c.84 0 1.523-.683 1.523-1.524v-3.047c0-7.547-6.106-13.71-13.711-13.71-7.56 0-13.71 6.15-13.71 13.71v3.047c0 .841.681 1.523 1.523 1.523zm1.523-4.57c0-5.88 4.784-10.665 10.664-10.665 5.869 0 10.664 4.748 10.664 10.664v1.524H28.336v-1.524zM48.14 9.14C48.14 4.1 44.04 0 39 0c-5.04 0-9.14 4.1-9.14 9.14 0 5.041 4.1 9.141 9.14 9.141 5.04 0 9.14-4.1 9.14-9.14zM39 15.235a6.1 6.1 0 0 1-6.094-6.093A6.1 6.1 0 0 1 39 3.047a6.101 6.101 0 0 1 6.094 6.094A6.101 6.101 0 0 1 39 15.234z" fill="#fff"/><path d="M1.782 46.87l13.563 15.728c.223.271.346.614.346.966v12.913c0 .841.682 1.523 1.524 1.523h18.738c.841 0 1.524-.682 1.524-1.523V55.845a7.57 7.57 0 0 0-2.256-5.41L24.374 40.044c-3.232-3.222-8.007-3.759-11.73-1.876v-12.27c0-5.968-5.31-10.664-11.12-10.664-.842 0-1.524.682-1.524 1.524v25.216c0 1.778.627 3.51 1.765 4.877l.017.02zm1.265-28.439c3.582.704 6.55 3.778 6.55 7.467v15.238c.002.403.17.797.447 1.074l10.927 10.928a1.524 1.524 0 1 0 2.155-2.155l-9.733-9.732c2.745-1.756 6.442-1.438 8.838.959l10.87 10.413a4.541 4.541 0 0 1 1.329 3.222v19.108H18.738v-11.39a4.572 4.572 0 0 0-1.061-2.926l-.015-.018L4.098 44.891a4.581 4.581 0 0 1-1.051-2.917V18.43zm73.43-3.197c-6.029 0-11.121 4.884-11.121 10.664v12.27a10.095 10.095 0 0 0-4.57-1.082c-2.704 0-5.246 1.05-7.16 2.958L42.755 50.458a7.567 7.567 0 0 0-2.232 5.387v20.632c0 .841.682 1.523 1.524 1.523h18.738c.841 0 1.524-.682 1.524-1.523V63.564c0-.352.122-.695.345-.966L76.235 46.85A7.634 7.634 0 0 0 78 41.974V16.758c0-.842-.683-1.524-1.523-1.524zm-1.524 26.74a4.582 4.582 0 0 1-1.052 2.917L60.323 60.637a4.571 4.571 0 0 0-1.061 2.927v11.39H43.57v-19.11a4.54 4.54 0 0 1 1.329-3.221l10.87-10.413c2.396-2.396 6.093-2.715 8.838-.96l-9.733 9.733a1.524 1.524 0 0 0 2.154 2.155L67.956 42.21c.276-.276.445-.666.446-1.074V25.898c0-3.569 2.92-6.753 6.551-7.467v23.543z" fill="#fff"/></svg>
